X:47
T:Betty Anne's
C:J.P. Cormier
D:Liz Doherty: Quare Imagination (2002)
Z:Gwen 2022-07-24 d'après Liz Doherty
M:6/8
R:Jig
K:G
|: dba gdB | cag fdB | cBc ABc | edc B2c |
   dba gdB | cag fdB | cBc ABc |1 BFA GBc :|2 BFA GDB, ||
|: G,B,D GBd | cAG F2E | DFA ^cdd | DFA c2c |
   G,B,D GBd | cAG F2E | DFA ABc |1 BFA GDB, :|2 BFA GBc ||

